!!!!SEGMENT: T597_Hon-w32p17m1h14m1-8.krn
!!!COM: Honegger, Arthur
!!!OTL: II: Danse des morts (Dance of the Dead)
!!!AGN: Stage
!!!AGN-sub: Theatrical
!!!CNT: Swiss,French
!!!ODT: 1938
!!!OPR: La Danse des morts (The Dance of the Dead), Oratorio for Soli, Choir and Orchestra
!!!filename: T597_Hon-w32p17m1h14m1-8.krn
**kern	**dynam	**kern	**dynam	**kern	**dynam	**kern	**dynam	**kern	**dynam	**kern	**text	**text	**dynam	**kern	**text	**text	**dynam	**kern	**text	**text	**dynam	**kern	**text	**text	**dynam	**kern	**text	**text	**dynam	**kern	**text	**text	**dynam	**kern	**kern	**dynam	**kern	**dynam	**kern	**dynam	**kern	**dynam	**kern	**dynam	**kern	**dynam	**kern	**dynam	**kern	**dynam	**kern	**dynam
*grp:A	*	*grp:A	*	*grp:A	*	*grp:A	*	*grp:A	*	*grp:A	*	*	*	*grp:A	*	*	*	*grp:A	*	*	*	*grp:A	*	*	*	*grp:A	*	*	*	*grp:A	*	*	*	*grp:A	*grp:A	*	*grp:A	*	*grp:A	*	*grp:A	*	*grp:A	*	*grp:A	*	*grp:A	*	*grp:A	*	*grp:A	*
*part21	*	*part20	*	*part19	*	*part18	*	*part17	*	*part16	*	*	*	*part15	*	*	*	*part14	*	*	*	*part13	*	*	*	*part12	*	*	*	*part11	*	*	*	*part10	*part9	*	*part8	*	*part7	*	*part6	*	*part5	*	*part4	*	*part3	*	*part2	*	*part1	*
*staff21	*	*staff20	*	*staff19	*	*staff18	*	*staff17	*	*staff16	*	*	*	*staff15	*	*	*	*staff14	*	*	*	*staff13	*	*	*	*staff12	*	*	*	*staff11	*	*	*	*staff10	*staff9	*	*staff8	*	*staff7	*	*staff6	*	*staff5	*	*staff4	*	*staff3	*	*staff2	*	*staff1	*
*I"Contrabass	*	*I"Violoncello	*	*I"Viola	*	*I"Violin II	*	*I"Violin I	*	*I"Baritone Solo	*	*	*	*I"Alto Solo	*	*	*	*I"Bass	*	*	*	*I"Tenor	*	*	*	*I"Alto	*	*	*	*I"Soprano	*	*	*	*I"Récitant	*I"Trombone	*	*I"Trumpet in C II	*	*I"Trumpet in C I	*	*I"Horn in F [C]	*	*I"Bassoon II	*	*I"Bassoon I	*	*I"Oboe	*	*I"Flute	*	*I"Piccolo	*
*I'Cb.	*	*I'Vc.	*	*I'Vla.	*	*I'Vln. II	*	*I'Vln. I	*	*I'Bar. Solo	*	*	*	*I'A. Solo	*	*	*	*I'B.	*	*	*	*I'T.	*	*	*	*I'A.	*	*	*	*I'S.	*	*	*	*I'Voice	*I'Tbn.	*	*I'C Tpt.	*	*I'C Tpt.	*	*I'Hn.	*	*I'Bsn. II	*	*I'Bsn. I	*	*I'Ob.	*	*I'Fl.	*	*I'Picc.	*
*clefF4	*	*clefF4	*	*clefC3	*	*clefG2	*	*clefG2	*	*clefF4	*	*	*	*clefG2	*	*	*	*clefF4	*	*	*	*clefG2	*	*	*	*clefG2	*	*	*	*clefG2	*	*	*	*clefG2	*clefF4	*	*clefG2	*	*clefG2	*	*clefG2	*	*clefF4	*	*clefC4	*	*clefG2	*	*clefG2	*	*clefG2	*
*ITrd7c12	*	*	*	*	*	*	*	*	*	*	*	*	*	*	*	*	*	*	*	*	*	*ITrd7c12	*	*	*	*	*	*	*	*	*	*	*	*	*	*	*	*	*	*	*	*	*	*	*	*	*	*	*	*	*ITrd-7c-12	*
*k[]	*	*k[]	*	*k[]	*	*k[]	*	*k[]	*	*k[]	*	*	*	*k[]	*	*	*	*k[]	*	*	*	*k[]	*	*	*	*k[]	*	*	*	*k[]	*	*	*	*k[]	*k[]	*	*k[]	*	*k[]	*	*k[]	*	*k[]	*	*k[]	*	*k[]	*	*k[]	*	*k[]	*
*C:	*	*C:	*	*C:	*	*C:	*	*C:	*	*C:	*	*	*	*C:	*	*	*	*C:	*	*	*	*C:	*	*	*	*C:	*	*	*	*C:	*	*	*	*C:	*C:	*	*C:	*	*C:	*	*C:	*	*C:	*	*C:	*	*C:	*	*C:	*	*C:	*
*M6/8	*	*M6/8	*	*M6/8	*	*M6/8	*	*M6/8	*	*M6/8	*	*	*	*M6/8	*	*	*	*M6/8	*	*	*	*M6/8	*	*	*	*M6/8	*	*	*	*M6/8	*	*	*	*M6/8	*M6/8	*	*M6/8	*	*M6/8	*	*M6/8	*	*M6/8	*	*M6/8	*	*M6/8	*	*M6/8	*	*M6/8	*
*	*	*	*	*	*	*	*	*	*	*	*	*italic	*	*	*	*italic	*	*	*	*italic	*	*	*	*italic	*	*	*	*italic	*	*	*	*italic	*	*	*	*	*	*	*	*	*	*	*	*	*	*	*	*	*	*	*	*
=1	=1	=1	=1	=1	=1	=1	=1	=1	=1	=1	=1	=1	=1	=1	=1	=1	=1	=1	=1	=1	=1	=1	=1	=1	=1	=1	=1	=1	=1	=1	=1	=1	=1	=1	=1	=1	=1	=1	=1	=1	=1	=1	=1	=1	=1	=1	=1	=1	=1	=1	=1	=1
!	!	!	!	!	!	!	!	!	!	!	!	!	!	!	!	!	!	!	!	!	!	!	!	!	!	!	!	!	!	!	!	!	!	!	!	!	!LO:TX:t=sans sourd.	!	!LO:TX:t=sans sourd.	!	!	!	!	!	!	!	!	!	!	!	!	!
*	*	*	*	*tremolo	*	*	*	*	*	*	*	*	*	*	*	*	*	*	*	*	*	*	*	*	*	*	*	*	*	*	*	*	*	*	*	*	*	*	*	*	*	*	*	*	*	*	*	*	*tremolo	*	*	*
!LO:TX:t=[pizz.]	!LO:DY:ed=brack	!	!LO:DY:ed=brack	!	!LO:DY:ed=brack	!	!	!	!	!	!	!	!	!	!	!	!	!	!	!	!	!	!	!	!	!	!	!	!	!	!	!	!	!	!	!	!	!	!	!	!	!	!	!	!	!	!	!	!	!LO:DY:ed=brack	!	!
4DD-/	p	4D-/	p	16ALL	p	4r	4r	4r	.	4%3r	.	.	.	4e	mort.	Tod!	.	4C#	danse	tanzt,	.	4r	.	.	.	4ee	du	di	.	4ee	du	di	.	4%3r	4r	.	4r	.	4r	.	4r	.	8C#	.	8a]	.	4%3r	.	16aLL	p	2.r	.
.	.	.	.	16A	.	.	.	.	.	.	.	.	.	.	.	.	.	.	.	.	.	.	.	.	.	.	.	.	.	.	.	.	.	.	.	.	.	.	.	.	.	.	.	.	.	.	.	.	16a	.	.	.
.	.	.	.	16A#	.	.	.	.	.	.	.	.	.	.	.	.	.	.	.	.	.	.	.	.	.	.	.	.	.	.	.	.	.	.	.	.	.	.	.	.	.	.	8r	.	8r	.	.	.	16a#	.	.	.
.	.	.	.	16A#	.	.	.	.	.	.	.	.	.	.	.	.	.	.	.	.	.	.	.	.	.	.	.	.	.	.	.	.	.	.	.	.	.	.	.	.	.	.	.	.	.	.	.	.	16a#	.	.	.
8r	.	8r	.	16B	.	8r	.	8r	.	.	.	.	.	8r	.	.	.	8r	.	.	.	8e	en	im	.	8ee	clai-	Trom-	.	8ee	clai-	Trom-	.	.	8r	.	8r	.	8r	.	8r	.	8r	.	8r	.	.	.	16b	.	.	.
.	.	.	.	16BJJ	.	.	.	.	.	.	.	.	.	.	.	.	.	.	.	.	.	.	.	.	.	.	.	.	.	.	.	.	.	.	.	.	.	.	.	.	.	.	.	.	.	.	.	.	16bJJ	.	.	.
!LO:TX:t=arco	!	!	!	!	!	!	!	!	!	!	!	!	!	!	!	!	!	!	!	!	!	!	!	!	!	!	!	!	!	!	!	!	!	!	!	!	!	!	!	!	!	!	!	!	!	!	!	!	!	!	!	!
8BBB-^L	ff	8BB-^L	ff	16cLL	ff	8dd^L	ff	8g^L 8ee^L	ff	.	.	.	.	4r	.	.	.	4r	.	.	.	4e	rond,	Rund,	<	8eeL	ron	pe-	<	8eeL	ron	pe-	<	.	8BB-L 8cL	ff	8ddL	ff	8eeL	ff	8enL 8gL	ff	8BB-L	ff	8dL	ff	.	.	16ccLL	f	.	.
.	.	.	.	16c	.	.	.	.	.	.	.	.	.	.	.	.	.	.	.	.	.	.	.	.	.	.	.	.	.	.	.	.	.	.	.	.	.	.	.	.	.	.	.	.	.	.	.	.	16cc	.	.	.
8BBB-^	.	8BB-^	.	16c#	.	8dd-^	.	8g^ 8ee^	.	.	.	.	.	.	.	.	.	.	.	.	.	.	.	.	.	8ee	du	te	.	8ee	du	te	.	.	8BB- 8c#	.	8dd-	.	8ee	.	8en 8g	.	8BB-	.	8d-	.	.	.	16cc#	.	.	.
.	.	.	.	16c#	.	.	.	.	.	.	.	.	.	.	.	.	.	.	.	.	.	.	en	im	.	.	.	.	.	.	.	.	.	.	.	.	.	.	.	.	.	.	.	.	.	.	.	.	16cc#	.	.	.
8BBB-^J	.	8BB-^J	.	16d	.	8cc^J	.	8g^J 8ee^J	.	.	.	.	.	8r	.	.	.	8GnX	y	man	f	8cX	.	.	[	8eeJ	clair-	sie	[	8eeJ	clai-	di	[	.	8BB-J 8dJ	.	8ccJ	.	8eeJ	.	8enJ 8gJ	.	8BB-J	.	8cJ	.	.	.	16dd	.	.	.
.	.	.	.	16dJJ	.	.	.	.	.	.	.	.	.	.	.	.	.	.	.	.	.	.	.	.	.	.	.	.	.	.	.	.	.	.	.	.	.	.	.	.	.	.	.	.	.	.	.	.	16ddJJ	.	.	.
*	*	*	*	*Xtremolo	*	*	*	*	*	*	*	*	*	*	*	*	*	*	*	*	*	*	*	*	*	*	*	*	*	*	*	*	*	*	*	*	*	*	*	*	*	*	*	*	*	*	*	*	*Xtremolo	*	*	*
.	.	.	.	.	.	.	.	.	.	.	.	.	.	.	.	.	.	.	.	.	.	.	.	.	.	.	.	.	.	.	.	.	.	.	.	.	.	.	.	.	.	.	.	.	.	.	.	.	.	.	(>32dddqqLLL<	.
.	.	.	.	.	.	.	.	.	.	.	.	.	.	.	.	.	.	.	.	.	.	.	.	.	.	.	.	.	.	.	.	.	.	.	.	.	.	.	.	.	.	.	.	.	.	.	.	.	.	.	32ddd#qq	.
.	.	.	.	.	.	.	.	.	.	.	.	.	.	.	.	.	.	.	.	.	.	.	.	.	.	.	.	.	.	.	.	.	.	.	.	.	.	.	.	.	.	.	.	.	.	.	.	.	.	.	32eeeqqJJJ	.
!!LO:REH:t=14
=2	=2	=2	=2	=2	=2	=2	=2	=2	=2	=2	=2	=2	=2	=2	=2	=2	=2	=2	=2	=2	=2	=2	=2	=2	=2	=2	=2	=2	=2	=2	=2	=2	=2	=2	=2	=2	=2	=2	=2	=2	=2	=2	=2	=2	=2	=2	=2	=2	=2	=2	=2	=2
!	!	!	!	!	!	!	!	!	!	!	!	!	!	!	!	!	!	!	!	!	!	!	!	!	!	!	!	!	!	!	!	!	!	!LO:TX:b:i:t=Die Herren!	!	!	!	!	!	!	!	!	!	!	!	!	!	!	!	!	!	!
4AAA	ff	4AA	.	8cn 8f	.	8f 8cc 8ff	.	8f 8cc 8ff	.	16FnLL	Souviens-	Den-	p	4%3r	.	.	.	4Cn	danse	tanzt,	.	8c	rond	Rund,	f	8ccn	-ron	klingt!	f	8ffn	-ron	klingt!	f	4%3r	8AA 8cn	.	8cc	.	8ff	.	8f 8cc	.	8AA	.	8c	.	8ffL	fp	8ccnL	fp	8fffL)	fp
.	.	.	.	.	.	.	.	.	.	16FJ	.	-ke	.	.	.	.	.	.	.	.	.	.	.	.	.	.	.	.	.	.	.	.	.	.	.	.	.	.	.	.	.	.	.	.	.	.	.	.	.	.	.	.
.	.	.	.	8r	.	8r	.	8r	.	8FJ	-toi	doch,	.	.	.	.	.	.	.	.	.	8r	.	.	.	8r	.	.	.	4r	.	.	.	.	8r	.	8r	.	8r	.	8r	.	8r	.	8r	.	8r	.	8r	.	8r	.
8r	.	8r	.	8r	.	8r	.	8r	.	8r	.	.	.	.	.	.	.	8r	.	.	.	8A	en	im	p	8a	en	Im	p	.	.	.	.	.	8r	.	8r	.	8r	.	8f 8a	p	8r	.	8r	.	8ddd'J	.	8ddd'J	fp	8ddd~J	.
!LO:TX:a:t=pizz.	!	!LO:TX:a:t=pizz.	!	!	!	!	!	!	!	!	!	!	!	!	!	!	!	!	!	!	!	!	!	!	!	!	!	!	!	!	!	!	!	!LO:TX:a:t=Les	!	!	!	!	!	!	!	!	!	!	!	!	!	!	!	!	!	!
4FFF	p	4FF	p	4r	.	4r	.	4r	.	[4F	hom-	Mensch,	.	.	.	.	.	4r	.	.	.	8Bn/	rond	Rund,	.	8b/	rond	Rund,	.	4r	.	.	.	.	4r	.	4r	.	4r	.	4enX 4bnX	.	4r	.	4r	.	8ddd-X'L	.	8ddd-X'L	.	8ddd-X'	.
.	.	.	.	.	.	.	.	.	.	.	.	.	.	.	.	.	.	.	.	.	.	8r	.	.	.	8r	.	.	.	.	.	.	.	.	.	.	.	.	.	.	.	.	.	.	.	.	8r	.	8r	.	8r	.
8r	.	8r	.	8r	.	8r	.	8r	.	8F]	-me	.	.	.	.	.	.	8c	y	man	p	8r	.	.	.	8r	.	.	.	8cc	en	Im	p	.	8r	.	8r	.	8r	.	8r	.	8r	.	8r	.	8ccc'J	.	8ccc'J	.	8r	.
=3	=3	=3	=3	=3	=3	=3	=3	=3	=3	=3	=3	=3	=3	=3	=3	=3	=3	=3	=3	=3	=3	=3	=3	=3	=3	=3	=3	=3	=3	=3	=3	=3	=3	=3	=3	=3	=3	=3	=3	=3	=3	=3	=3	=3	=3	=3	=3	=3	=3	=3	=3	=3
!	!	!	!	!	!	!	!	!	!	!	!	!	!	!	!	!	!	!	!	!	!	!	!	!	!	!	!	!	!	!	!	!	!	!LO:TX:a:t=Messiuers!	!	!	!	!	!	!	!	!	!	!	!	!	!	!	!	!	!	!
4FF	.	4F	.	((4c	p	((4bn	p	4%3r	.	8FL	que	dass	.	4%3r	.	.	.	4F	danse	tanzt,	.	4r	.	.	.	4r	.	.	.	4f	rond	Rund	.	4%3r	4%3r	.	4%3r	.	4%3r	.	4r	.	4%3r	.	4%3r	.	4%3r	.	8aa-X'L	.	8aaa-X'L	.
.	.	.	.	.	.	.	.	.	.	8F	tu	du	.	.	.	.	.	.	.	.	.	.	.	.	.	.	.	.	.	.	.	.	.	.	.	.	.	.	.	.	.	.	.	.	.	.	.	.	8r	.	8r	.
8r	.	8r	.	8a)	.	8dd)	.	.	.	8FJ	es	vom	.	.	.	.	.	8r	.	.	.	8A	en	im	.	8a	en	im	.	8r	.	.	.	.	.	.	.	.	.	.	8r	.	.	.	.	.	.	.	8bbn'J	.	8bbbn'J	.
4CC	.	4C	.	8bn')	.	8ff')	.	.	.	8FL	es-	Geist	.	.	.	.	.	4r	.	.	.	8B/	rond	Rund,	.	8b/	rond	Rund!	.	4.r	.	.	.	.	.	.	.	.	.	.	8.g#XL 8.b	.	.	.	.	.	.	.	4ff	.	4fff	.
.	.	.	.	8r	.	8r	.	.	.	8FJ	-prit	bist,	.	.	.	.	.	.	.	.	.	8r	.	.	.	8r	.	.	.	.	.	.	.	.	.	.	.	.	.	.	.	.	.	.	.	.	.	.	.	.	.	.
.	.	.	.	.	.	.	.	.	.	.	.	.	.	.	.	.	.	.	.	.	.	.	.	.	.	.	.	.	.	.	.	.	.	.	.	.	.	.	.	.	16g#k 16b	.	.	.	.	.	.	.	.	.	.	.
8r	.	8r	.	8r	.	8r	.	.	.	8r	.	.	.	.	.	.	.	8c	y	man	.	8c	en	im	.	8r	.	.	.	.	.	.	.	.	.	.	.	.	.	.	8gJ 8b-	.	.	.	.	.	.	.	8r	.	8r	.
=4	=4	=4	=4	=4	=4	=4	=4	=4	=4	=4	=4	=4	=4	=4	=4	=4	=4	=4	=4	=4	=4	=4	=4	=4	=4	=4	=4	=4	=4	=4	=4	=4	=4	=4	=4	=4	=4	=4	=4	=4	=4	=4	=4	=4	=4	=4	=4	=4	=4	=4	=4	=4
*	*	*	*	*	*	*	*	*	*	*	*	*	*	*	*	*	*	*	*	*	*	*	*	*	*	*M2/4	*	*	*	*	*	*	*	*	*	*	*	*	*	*	*	*	*	*	*	*	*	*	*	*	*	*
*	*	*	*	*	*	*	*	*	*	*	*	*	*	*	*	*	*	*	*	*	*	*	*	*	*	*Xtuplet	*	*	*	*	*	*	*	*	*	*	*	*	*	*	*	*	*	*	*	*	*	*	*	*	*	*
*grp:A	*	*grp:A	*	*grp:A	*	*grp:A	*	*grp:A	*	*grp:A	*	*	*	*grp:A	*	*	*	*grp:A	*	*	*	*grp:A	*	*	*	*grp:B	*	*	*	*grp:A	*	*	*	*grp:A	*grp:A	*	*grp:A	*	*grp:A	*	*grp:A	*	*grp:A	*	*grp:A	*	*grp:A	*	*grp:A	*	*grp:A	*
!	!	!	!	!	!	!	!	!	!	!	!	!	!	!	!	!	!	!	!	!	!	!	!	!	!	!	!	!	!	!	!	!	!	!LO:TX:b:i:t=Die Damen!	!	!	!	!	!	!	!	!	!	!	!	!	!	!	!	!	!	!
!	!	!LO:TX:a:t=arco	!	!	!	!	!	!	!	!	!	!	!	!	!	!	!	!	!	!	!	!	!	!	!	!	!	!	!	!	!	!	!	!LO:TX:a:t=Les Dames!	!	!	!	!	!	!	!	!	!	!	!	!	!	!	!	!	!	!
4AAA	.	(4.AA	.	(4.c	.	(2.f	.	(4.cc	p	8r	.	.	.	4%3r	.	.	.	4F	danse	tanzt,	.	4F	rond	Rund,	.	16%3fL	Sur	Wohl	.	([4.ff	En-	tre-	.	4%3r	4%3r	.	4%3r	.	4%3r	.	4f 4cc	.	(4.AA	p	4%3r	.	(2.ff	.	(4.ccc	.	4%3r	.
.	.	.	.	.	.	.	.	.	.	8FL	et	und	.	.	.	.	.	.	.	.	.	.	.	.	.	.	.	.	.	.	.	.	.	.	.	.	.	.	.	.	.	.	.	.	.	.	.	.	.	.	.	.
.	.	.	.	.	.	.	.	.	.	.	.	.	.	.	.	.	.	.	.	.	.	.	.	.	.	16%3fJ	le	am	.	.	.	.	.	.	.	.	.	.	.	.	.	.	.	.	.	.	.	.	.	.	.	.
8r	.	.	.	.	.	.	.	.	.	8FJ	la	das	.	.	.	.	.	8r	.	.	.	8r	.	.	.	.	.	.	.	.	.	.	.	.	.	.	.	.	.	.	8r	.	.	.	.	.	.	.	.	.	.	.
4r	.	4.FF)	.	4.c#X	.	.	.	4.cc#X	.	4F	chair	Fleisch	.	.	.	.	.	4r	.	.	.	4r	.	.	.	8%3f	pont	Rand	.	4ff]	.	.	.	.	.	.	.	.	.	.	4r	.	4.F	.	.	.	.	.	4.ccc#X	.	.	.
8r	.	.	.	.	.	.	.	.	.	8F	est	mehr	.	.	.	.	.	8A	y	man	.	8r	.	.	.	.	.	.	.	8ff)	-trez	-tet	.	.	.	.	.	.	.	.	8r	.	.	.	.	.	.	.	.	.	.	.
=5	=5	=5	=5	=5	=5	=5	=5	=5	=5	=5	=5	=5	=5	=5	=5	=5	=5	=5	=5	=5	=5	=5	=5	=5	=5	=5	=5	=5	=5	=5	=5	=5	=5	=5	=5	=5	=5	=5	=5	=5	=5	=5	=5	=5	=5	=5	=5	=5	=5	=5	=5	=5
4%3r	.	(<4.BB-X	.	4.d	.	2.g)	.	4.dd	.	4F	plus	wart	.	4%3r	.	.	.	4D	danse	tanzt!	.	4r	.	.	.	16%3gL	de	unseres	.	[4.ff	dans	an	.	4%3r	4%3r	.	4%3r	.	4%3r	.	4%3r	.	4.B-X	.	4%3r	.	2.gg)	.	4.ddd	.	4%3r	.
.	.	.	.	.	.	.	.	.	.	.	.	.	.	.	.	.	.	.	.	.	.	.	.	.	.	16%3gJ	la	.	.	.	.	.	.	.	.	.	.	.	.	.	.	.	.	.	.	.	.	.	.	.	.	.
.	.	.	.	.	.	.	.	.	.	16FLL	que	als	.	.	.	.	.	8r	.	.	.	8r	.	.	.	.	.	.	.	.	.	.	.	.	.	.	.	.	.	.	.	.	.	.	.	.	.	.	.	.	.	.
.	.	.	.	.	.	.	.	.	.	16FJJ	le	wie	.	.	.	.	.	.	.	.	.	.	.	.	.	.	.	.	.	.	.	.	.	.	.	.	.	.	.	.	.	.	.	.	.	.	.	.	.	.	.	.
!	!	!	!	!	!	!	!	!	!	!	!	!	!	!	!	!	!	!	!	!	!	!	!	!	!	!	!	!	!	!	!	!	!	!LO:TX:b:i:t=Die Jungfrauen!	!	!	!	!	!	!	!	!	!	!	!	!	!	!	!	!	!	!
.	.	4.G)	.	4.c#X)	.	.	.	4.cc#X)	.	16FLL	vê-	dein	.	.	.	.	.	4r	.	.	.	4r	.	.	.	[16%3gL	tom-	Gra-	.	8ff]	.	.	.	.	.	.	.	.	.	.	.	.	4.G)	.	.	.	.	.	4.ccc#X)	.	.	.
.	.	.	.	.	.	.	.	.	.	16FJJ	-te-	Ge-	.	.	.	.	.	.	.	.	.	.	.	.	.	.	.	.	.	.	.	.	.	.	.	.	.	.	.	.	.	.	.	.	.	.	.	.	.	.	.	.
.	.	.	.	.	.	.	.	.	.	4F	-ment	-wand,	.	.	.	.	.	.	.	.	.	.	.	.	.	.	.	.	.	4gg	la	zum	.	.	.	.	.	.	.	.	.	.	.	.	.	.	.	.	.	.	.	.
!	!	!	!	!	!	!	!	!	!	!	!	!	!	!	!	!	!	!	!	!	!	!	!	!	!	!	!	!	!	!	!	!	!	!LO:TX:a:t=Les	!	!	!	!	!	!	!	!	!	!	!	!	!	!	!	!	!	!
.	.	.	.	.	.	.	.	.	.	.	.	.	.	.	.	.	.	.	.	.	.	.	.	.	.	16%3gJ]	-be	-bes	.	.	.	.	.	.	.	.	.	.	.	.	.	.	.	.	.	.	.	.	.	.	.	.
.	.	.	.	.	.	.	.	.	.	.	.	.	.	.	.	.	.	8r	.	.	.	8B-X	en	im	.	.	.	.	.	.	.	.	.	.	.	.	.	.	.	.	.	.	.	.	.	.	.	.	.	.	.	.
=6	=6	=6	=6	=6	=6	=6	=6	=6	=6	=6	=6	=6	=6	=6	=6	=6	=6	=6	=6	=6	=6	=6	=6	=6	=6	=6	=6	=6	=6	=6	=6	=6	=6	=6	=6	=6	=6	=6	=6	=6	=6	=6	=6	=6	=6	=6	=6	=6	=6	=6	=6	=6
!	!	!	!	!	!	!	!	!	!	!	!	!	!	!	!	!	!	!	!	!	!	!	!	!	!	!	!	!	!	!	!	!	!	!LO:TX:a:t=Demoiselles!	!	!	!	!	!	!	!	!	!	!	!	!	!	!	!	!	!	!
4%3r	.	(4.D/	.	(4.d	.	(2.a	.	(4.dd	.	4r	.	.	.	4%3r	.	.	.	4%3r	.	.	.	4d	rond	Rund,	.	16%3a'L	on	tanzt	.	(2.ff	dan-	Tan-	.	4%3r	4%3r	.	4%3r	.	4%3r	.	4%3r	.	(>4.D/	.	4%3r	.	(2.aa	.	(4.ccc	.	4%3r	.
.	.	.	.	.	.	.	.	.	.	.	.	.	.	.	.	.	.	.	.	.	.	.	.	.	.	16%3b-X'J	y	im	.	.	.	.	.	.	.	.	.	.	.	.	.	.	.	.	.	.	.	.	.	.	.	.
.	.	.	.	.	.	.	.	.	.	8F	et	und	.	.	.	.	.	.	.	.	.	8r	.	.	.	.	.	.	.	.	.	.	.	.	.	.	.	.	.	.	.	.	.	.	.	.	.	.	.	.	.	.
.	.	4.AA)	.	4.d#X	.	.	.	4.dd#X	.	16F	l'es-	der	.	.	.	.	.	.	.	.	.	8r	.	.	.	16%3cc'L	dans'	Rei-	.	.	.	.	.	.	.	.	.	.	.	.	.	.	4.AA	.	.	.	.	.	4.ddd#X	.	.	.
.	.	.	.	.	.	.	.	.	.	4F	-prit	Geist	.	.	.	.	.	.	.	.	.	.	.	.	.	.	.	.	.	.	.	.	.	.	.	.	.	.	.	.	.	.	.	.	.	.	.	.	.	.	.	.
.	.	.	.	.	.	.	.	.	.	.	.	.	.	.	.	.	.	.	.	.	.	8r	.	.	.	.	.	.	.	.	.	.	.	.	.	.	.	.	.	.	.	.	.	.	.	.	.	.	.	.	.	.
.	.	.	.	.	.	.	.	.	.	.	.	.	.	.	.	.	.	.	.	.	.	.	.	.	.	16%3f'J	y	-gen,	.	.	.	.	.	.	.	.	.	.	.	.	.	.	.	.	.	.	.	.	.	.	.	.
.	.	.	.	.	.	.	.	.	.	.	.	.	.	.	.	.	.	.	.	.	.	8c	y	man	.	.	.	.	.	.	.	.	.	.	.	.	.	.	.	.	.	.	.	.	.	.	.	.	.	.	.	.
.	.	.	.	.	.	.	.	.	.	16F	est	ist	.	.	.	.	.	.	.	.	.	.	.	.	.	.	.	.	.	.	.	.	.	.	.	.	.	.	.	.	.	.	.	.	.	.	.	.	.	.	.	.
=7	=7	=7	=7	=7	=7	=7	=7	=7	=7	=7	=7	=7	=7	=7	=7	=7	=7	=7	=7	=7	=7	=7	=7	=7	=7	=7	=7	=7	=7	=7	=7	=7	=7	=7	=7	=7	=7	=7	=7	=7	=7	=7	=7	=7	=7	=7	=7	=7	=7	=7	=7	=7
!	!	!	!	!	!	!	!	!	!	!	!	!	!	!	!	!	!	!	!	!	!	!	!	!	!	!	!	!	!	!	!	!	!	!LO:TX:a:t=Tout le monde!	!	!	!	!	!	!	!	!	!	!	!	!	!	!	!	!	!	!
4%3r	.	(4.GG	.	4.e	.	4.cc	.	4.ee	.	4F	plus	mehr	.	4%3r	.	.	.	4%3r	.	.	.	4B-X	danse	tanzt,	.	16%3en'>L	dans'	tanzt	.	4.cc)	-se	-ze!	.	4%3r	4%3r	.	4%3r	.	4%3r	.	4%3r	.	4.GG	.	4%3r	.	4.ccc	.	4.eee	.	4%3r	.
.	.	.	.	.	.	.	.	.	.	.	.	.	.	.	.	.	.	.	.	.	.	.	.	.	.	16%3f'>J	y	im	.	.	.	.	.	.	.	.	.	.	.	.	.	.	.	.	.	.	.	.	.	.	.	.
.	.	.	.	.	.	.	.	.	.	16FLL	que	als	.	.	.	.	.	.	.	.	.	8r	.	.	.	.	.	.	.	.	.	.	.	.	.	.	.	.	.	.	.	.	.	.	.	.	.	.	.	.	.	.
.	.	.	.	.	.	.	.	.	.	16FJJ	la	das	.	.	.	.	.	.	.	.	.	.	.	.	.	.	.	.	.	.	.	.	.	.	.	.	.	.	.	.	.	.	.	.	.	.	.	.	.	.	.	.
.	.	4.BB-X)	.	8cL	.	4.g)	.	8ccL	.	4F	chair	Fleisch,	.	.	.	.	.	.	.	.	.	4r	.	.	.	16%3g'>L	dan-	Rei-	.	4r	.	.	.	.	.	.	.	.	.	.	.	.	4.BB-X)	.	.	.	4.gg)	.	8cccL	.	.	.
.	.	.	.	8d	.	.	.	8dd	.	.	.	.	.	.	.	.	.	.	.	.	.	.	.	.	.	.	.	.	.	.	.	.	.	.	.	.	.	.	.	.	.	.	.	.	.	.	.	.	8ddd	.	.	.
!	!	!	!	!	!	!	!	!	!	!	!	!	!	!	!	!	!	!	!	!	!	!	!	!	!	!	!	!	!	!	!	!	!	!LO:TX:a:t=Tout	!	!	!	!	!	!	!	!	!	!	!	!	!	!	!	!	!	!
!	!	!	!	!	!	!	!	!	!	!	!	!	!	!	!	!	!	!	!	!	!	!	!	!	!	!	!	!	!	!	!	!	!	!LO:TX:b:i:t=  Alle	!	!	!	!	!	!	!	!	!	!	!	!	!	!	!	!	!	!
.	.	.	.	.	.	.	.	.	.	.	.	.	.	.	.	.	.	.	.	.	.	.	.	.	.	16%3c'>J	-se	-gen	.	.	.	.	.	.	.	.	.	.	.	.	.	.	.	.	.	.	.	.	.	.	.	.
.	.	.	.	8eJ)	.	.	.	8eeJ)	.	8F	et	und	.	.	.	.	.	.	.	.	.	8c	en	im	.	.	.	.	.	8r	.	.	.	.	.	.	.	.	.	.	.	.	.	.	.	.	.	.	8eeeJ)	.	.	.
=8	=8	=8	=8	=8	=8	=8	=8	=8	=8	=8	=8	=8	=8	=8	=8	=8	=8	=8	=8	=8	=8	=8	=8	=8	=8	=8	=8	=8	=8	=8	=8	=8	=8	=8	=8	=8	=8	=8	=8	=8	=8	=8	=8	=8	=8	=8	=8	=8	=8	=8	=8	=8
*	*	*	*	*	*	*	*	*	*	*	*	*	*	*	*	*	*	*M2/4	*	*	*	*	*	*	*	*	*	*	*	*	*	*	*	*	*	*	*	*	*	*	*	*	*	*	*	*	*	*	*	*	*	*
*	*	*	*	*	*	*	*	*	*	*	*	*	*	*	*	*	*	*Xtuplet	*	*	*	*	*	*	*	*	*	*	*	*	*	*	*	*	*	*	*	*	*	*	*	*	*	*	*	*	*	*	*	*	*	*
*grp:A	*	*grp:A	*	*grp:A	*	*grp:A	*	*grp:A	*	*grp:A	*	*	*	*grp:A	*	*	*	*grp:B	*	*	*	*grp:A	*	*	*	*grp:B	*	*	*	*grp:A	*	*	*	*grp:A	*grp:A	*	*grp:A	*	*grp:A	*	*grp:A	*	*grp:A	*	*grp:A	*	*grp:A	*	*grp:A	*	*grp:A	*
!	!	!	!	!	!	!	!	!	!	!	!	!	!	!	!	!	!	!	!	!	!	!	!	!	!	!	!	!	!	!	!	!	!	!LO:TX:a:t=le monde!	!	!	!	!	!	!	!	!	!	!	!	!	!	!	!	!	!	!
!	!	!	!	!	!	!	!	!	!	!	!	!	!	!	!	!	!	!	!	!	!	!	!	!	!	!	!	!	!	!	!	!	!	!LO:TX:b:i:t=Welt!	!	!	!	!	!	!	!	!	!	!	!	!	!	!	!	!	!	!
4%3r	.	(4.AA	.	(4.c	.	(>2.f	.	(4.cc	.	4F	l'oeil	mehr	.	4%3r	.	.	.	16%3F'L	sur	wohl	.	4F	rond	Rund,	.	16%3f'>L	sur	Wohl	.	([4.ff	vo-	Seht,	.	4%3r	4%3r	.	4%3r	.	4%3r	.	4%3r	.	(4.AA	.	4%3r	.	(2.ff	.	(4.ccc	.	4%3r	.
.	.	.	.	.	.	.	.	.	.	.	.	.	.	.	.	.	.	16%3F'J	le	am	.	.	.	.	.	16%3f'>J	le	am	.	.	.	.	.	.	.	.	.	.	.	.	.	.	.	.	.	.	.	.	.	.	.	.
.	.	.	.	.	.	.	.	.	.	8F	est	das	.	.	.	.	.	.	.	.	.	8r	.	.	.	.	.	.	.	.	.	.	.	.	.	.	.	.	.	.	.	.	.	.	.	.	.	.	.	.	.	.
.	.	4.FF)	.	4.c#X	.	.	.	4.cc#X	.	8FL	plus	Aug	.	.	.	.	.	4.F'	pont	Rand	.	4r	.	.	.	4.f'>	pont	Rand	.	4ff]	.	.	.	.	.	.	.	.	.	.	.	.	4.F	.	.	.	.	.	4.ccc#X	.	.	.
.	.	.	.	.	.	.	.	.	.	8F	que	als	.	.	.	.	.	.	.	.	.	.	.	.	.	.	.	.	.	.	.	.	.	.	.	.	.	.	.	.	.	.	.	.	.	.	.	.	.	.	.	.
.	.	.	.	.	.	.	.	.	.	8FJ	le	dein	.	.	.	.	.	.	.	.	.	8A	y	man	.	.	.	.	.	8ff)	-yez	wie	.	.	.	.	.	.	.	.	.	.	.	.	.	.	.	.	.	.	.	.
=9	=9	=9	=9	=9	=9	=9	=9	=9	=9	=9	=9	=9	=9	=9	=9	=9	=9	=9	=9	=9	=9	=9	=9	=9	=9	=9	=9	=9	=9	=9	=9	=9	=9	=9	=9	=9	=9	=9	=9	=9	=9	=9	=9	=9	=9	=9	=9	=9	=9	=9	=9	=9
!	!	!	!	!	!	!	!	!	!	!	!	!	!	!	!	!	!	!	!	!	!	!	!	!	!	!	!	!	!	!	!	!	!	!LO:TX:b:i:t=Herrschaften, herein!	!	!	!	!	!	!	!	!	!	!	!	!	!	!	!	!	!	!
!	!	!	!	!	!	!	!	!	!	!	!	!	!	!	!	!	!	!	!	!	!	!	!	!	!	!	!	!	!	!	!	!	!	!LO:TX:a:t=Entrez la compagnie!	!	!	!	!	!	!	!	!	!	!	!	!	!	!	!	!	!	!
4%3r	.	(<4.BB-X	.	4.d	.	2.g)	.	4.dd	.	8F	vi-	Ant-	.	4%3r	.	.	.	16%3GL	de	uns-	.	4d	danse	tanzt,	.	16%3gL	de	uns-	.	[4.ff	comme	al-	.	4%3r	4%3r	.	4%3r	.	4%3r	.	4%3r	.	4.B-X	.	4%3r	.	2.gg)	.	4.ddd	.	4%3r	.
.	.	.	.	.	.	.	.	.	.	[4F	-sage	-litz	.	.	.	.	.	.	.	.	.	.	.	.	.	.	.	.	.	.	.	.	.	.	.	.	.	.	.	.	.	.	.	.	.	.	.	.	.	.	.	.
.	.	.	.	.	.	.	.	.	.	.	.	.	.	.	.	.	.	16%3GJ	la	-res	.	.	.	.	.	16%3gJ	la	-res	.	.	.	.	.	.	.	.	.	.	.	.	.	.	.	.	.	.	.	.	.	.	.	.
.	.	.	.	.	.	.	.	.	.	.	.	.	.	.	.	.	.	.	.	.	.	8r	.	.	.	.	.	.	.	.	.	.	.	.	.	.	.	.	.	.	.	.	.	.	.	.	.	.	.	.	.	.
.	.	4.G)	.	4.c#X)	.	.	.	4.cc#X)	.	4F]	.	.	.	.	.	.	.	[16%3GL	tom-	Gra-	.	4r	.	.	.	[16%3gL	tom-	Gra-	.	8ff]	.	.	.	.	.	.	.	.	.	.	.	.	4.G)	.	.	.	.	.	4.ccc#X)	.	.	.
.	.	.	.	.	.	.	.	.	.	.	.	.	.	.	.	.	.	.	.	.	.	.	.	.	.	.	.	.	.	4gg	on	-le	.	.	.	.	.	.	.	.	.	.	.	.	.	.	.	.	.	.	.	.
.	.	.	.	.	.	.	.	.	.	.	.	.	.	.	.	.	.	16%3GJ]	-be	-bes	.	.	.	.	.	16%3gJ]	-be	-bes	.	.	.	.	.	.	.	.	.	.	.	.	.	.	.	.	.	.	.	.	.	.	.	.
.	.	.	.	.	.	.	.	.	.	8F	et	und	.	.	.	.	.	.	.	.	.	8B-X	en	im	.	.	.	.	.	.	.	.	.	.	.	.	.	.	.	.	.	.	.	.	.	.	.	.	.	.	.	.
=	=	=	=	=	=	=	=	=	=	=	=	=	=	=	=	=	=	=	=	=	=	=	=	=	=	=	=	=	=	=	=	=	=	=	=	=	=	=	=	=	=	=	=	=	=	=	=	=	=	=	=	=
*-	*-	*-	*-	*-	*-	*-	*-	*-	*-	*-	*-	*-	*-	*-	*-	*-	*-	*-	*-	*-	*-	*-	*-	*-	*-	*-	*-	*-	*-	*-	*-	*-	*-	*-	*-	*-	*-	*-	*-	*-	*-	*-	*-	*-	*-	*-	*-	*-	*-	*-	*-	*-
!!!system-decoration: [(s1,s2,s3,s4,s5)],[(s6,s7,s8,s9)],[(s10,s11,s12,s13,s14)],[(s15,s16)],[(s17,s18,s19,s20,s21)]
!!!RDF**kern: > = above
!!!RDF**kern: < = below
!!!EED: Gabriella Vici
!!!EEV: 2022/01/26
!!!EED2: Jason Lee
!!!EEV2: 2022/05/04
!!!EED3: Bryan Bell
!!!Suter_Work_ID: Hon-32
!!!Suter_Example_Number: 597
!!!Suter_Example_ID: Hon-32/17/1[14]1-8
!!!Premiere_Location: Basel,Switzerland
!!!Other_Tsigs: 6/8;2/4
!!!Full_Unit_Duration: 3:44
!!!First_Publication_Year: 1939
!!!First_Public_Performance_Year: 1940
!!!Example_Total_Measures: 8
!!!Example_Timestamp_Duration: 10
!!!Example_Start_Tsig_Type: changing
!!!Example_Start_Tsig_Mean_Beat_Rate: 96
!!!Example_Start_Tsig_Beat_Rate: 96
!!!Example_Start_Tsig_Beat: dotted-quarter
!!!Example_Start_Tsig: 6/8
!!!Example_Start_Timestamp: 1:06
!!!Example_Start_Tempo_Expression: none
!!!Example_Start_Notated_Beat_Rate: [96]
!!!Example_Start_Notated_Beat: [dotted-quarter]
!!!Example_Start_Measure: 62
!!!Example_Metadata_Validated: Y
!!!Example_End_Timestamp: 1:16
!!!Example_End_Measure: 69
!!!Example_Dataset: T
!!!Editorial_Comments: Example Start Notated Beat and Example Start Notated Beat Rate [dotted-quarter=96] based on most recent notated beat rate (SWFU, m. 1).
!!!Death_Place: Paris,France
!!!Death_Date: 27-Nov-1955
!!!Changing_Tsig: yes
!!!Birth_Place: Le Havre,France
!!!Birth_Date: 10-Mar-1892
!!!Audio_Example_Quarter_Note_Tempo:
!!!Audio_Example_Duration:
!!!EEV3: 2023/06/06
